custom_files/u167.svg

<svg width="19" height="19" viewBox="-237 272 19 19" xmlns="http://www.w3.org/2000/svg"><path d="M-227.5 272c5.32 0 9.5 4.18 9.5 9.5s-4.18 9.5-9.5 9.5-9.5-4.18-9.5-9.5 4.18-9.5 9.5-9.5z" fill="#aaa5a5"/><path d="M-227.5 272.5c5.04 0 9 3.96 9 9s-3.96 9-9 9-9-3.96-9-9 3.96-9 9-9z" stroke="#797979" fill="none"/></svg>

﻿<?xml version="1.0" encoding="utf-8"?>
<svg version="1.1" xmlns:xlink="http://www.w3.org/1999/xlink" width="19px" height="19px" viewBox="-237 272  19 19" xmlns="http://www.w3.org/2000/svg">
  <path d="M -227.5 272  C -222.18 272  -218 276.18  -218 281.5  C -218 286.82  -222.18 291  -227.5 291  C -232.82 291  -237 286.82  -237 281.5  C -237 276.18  -232.82 272  -227.5 272  Z " fill-rule="nonzero" fill="#aaa5a5" stroke="none" />
  <path d="M -227.5 272.5  C -222.46 272.5  -218.5 276.46  -218.5 281.5  C -218.5 286.54  -222.46 290.5  -227.5 290.5  C -232.54 290.5  -236.5 286.54  -236.5 281.5  C -236.5 276.46  -232.54 272.5  -227.5 272.5  Z " stroke-width="1" stroke="#797979" fill="none" />
</svg>
